X:1
T:Title
%%score { 1 | 2 }
L:1/8
Q:1/4=110
M:4/4
K:C
V:1 treble nm="Grand Piano"
V:2 bass 
V:1
 [EG]4 [Gc]3 [Ge] | [Gd]8 | [EG]2 [EG]>[EG] [FA]2 [EG]2 | [Ge]2 [Fd]2 [Ec]4 | %4
w: Alfred~Taylor * *||||
 [EG]2 [EG]>[EG] [FA]2 [EG]2 | G2 F2 D4 | [EG]2 [EG]>[EG] [FA]2 [EG]2 | [Ge]2 [Fd]2 [Ec]4 | %8
w: ||||
 d4 B3 B | [Ec]8 |] %10
w: ||
V:2
 [C,C]4 [E,C]3 [C,C] | [G,B,]8 | [C,C]2 [C,C]>[C,C] [C,C]2 [C,C]2 | [C,C]2 [C,G,]2 [C,G,]4 | %4
 [C,C]2 [C,C]>[C,C] [C,C]2 [C,C]2 | [G,E]2 [G,D]2 [G,B,]4 | [C,C]2 [C,C]>[C,C] [C,C]2 [C,C]2 | %7
 [C,C]2 [C,G,]2 [C,G,]4 | [F,A,F]4 [G,F]3 [G,F] | [C,G,]8 |] %10

